src/static/svg/event-bg.svg

<?xml version="1.0" encoding="UTF-8"?>
<svg width="1440px" height="1430px" viewBox="0 0 1440 1430" version="1.1" xmlns="http://www.w3.org/2000/svg" xmlns:xlink="http://www.w3.org/1999/xlink">
    <title>event-bg</title>
    <defs>
        <rect id="path-1" x="0.000817247476" y="0" width="1440" height="1430"></rect>
    </defs>
    <g id="R4" stroke="none" stroke-width="1" fill="none" fill-rule="evenodd">
        <g id="D---Homepage---1440" transform="translate(0.000000, -893.000000)">
            <g id="EVENTS" transform="translate(0.000000, 893.000000)">
                <g id="event-bg" transform="translate(-0.000817, 0.000000)">
                    <mask id="mask-2" fill="white">
                        <use xlink:href="#path-1"></use>
                    </mask>
                    <g id="Rectangle"></g>
                    <path d="M-0.148843315,506.718591 C-18.3340912,458.141128 -18.3322543,425.108345 -0.14333244,407.620244 C52.4769279,357.027445 122.263219,331.731046 209.215541,331.731046 C407.270641,331.731046 459.399631,290.682317 514.160897,203.142254 C560.453404,129.140149 579.938215,20.2462791 574.333192,-26.7579506 C568.728169,-73.7621802 1009.54325,-392.229537 1330.46023,-197.848976 C1547.2757,-66.5230729 1593.78922,476.093252 1470.00082,1430 L-0.148843315,1430 L-0.148843315,506.718591 Z" id="EVENT-BG" fill="#F2F0EB" mask="url(#mask-2)"></path>
                    <path d="M1500.00082,-220 C1501.876,-170.800754 1503.3574,-125.78914 1504.44501,-84.9651558 L1504.74504,-73.4151095 C1504.79326,-71.5090934 1504.84058,-69.6125729 1504.88702,-67.7255483 L1505.1549,-56.5173495 L1505.40135,-45.537049 C1508.2302,84.8591674 1506.43002,166.029354 1500.00082,197.973512 C1491.83037,238.569212 1434.8818,246.438951 1372.0001,252.290085 L1365.79739,252.860179 L1350.18265,254.271067 C1316.77717,257.309607 1283.09195,260.762367 1255.31228,269.062399 C1168.50082,295 1117.00082,322.084943 1063.00082,407 C1030.60082,457.949034 1011.52082,510.837108 995.881542,560.041925 L994.328718,564.949921 L992.796636,569.832112 L991.283102,574.68725 L989.042774,581.916497 L984.642858,596.167079 L983.192091,600.851087 L981.745602,605.499921 L980.301195,610.11233 C979.819829,611.64359 979.338444,613.168572 978.856675,614.687066 L977.409845,619.222878 C973.788056,630.512714 970.12404,641.425933 966.263432,651.874686 C940.526046,721.533038 798.774066,992 440.000817,992 C203.210473,992 57.0945699,1069.62305 1.65310693,1224.86916 L0.000817247475,1229.59735 L-75,1102.54179 L-59.9741803,824.725239 C4.78293552,718.458846 117.188309,661.075015 277.24194,652.573747 L282.106634,652.331095 C546.513375,639.992686 617.848713,565.88749 705.606634,422.456409 L713.384756,409.747356 L718.445743,401.492177 C797.84705,272.134859 843.610476,206.356409 1010.20351,128.456409 C1145.03757,65.4071174 1298.39061,-57.9860349 1368.14219,-185.462119 L1500.00082,-220 Z" id="Shape" fill="#FEFEFE" opacity="0.500676" mask="url(#mask-2)"></path>
                    <path d="M1.65392418,1224.86916 C57.0953871,1069.62305 203.211291,992 440.001634,992 C798.774883,992 940.526863,721.533038 966.264249,651.874686 C969.849099,642.172272 973.264439,632.069376 976.633862,621.636332 L977.410663,619.222878 L978.857492,614.687066 L979.579904,612.404485 L980.302013,610.11233 L981.74642,605.499921 L983.192909,600.851087 L984.643675,596.167079 L989.043592,581.916497 L991.283919,574.68725 L992.797453,569.832112 L994.329535,564.949921 L995.882359,560.041925 L997.299451,555.603698 L998.736723,551.146493 L1000.19578,546.67122 L1001.18137,543.678116 L1002.17783,540.677657 L1003.18562,537.670112 L1004.20524,534.655752 L1005.23714,531.634846 L1006.2818,528.607663 L1007.3397,525.574475 C1007.51715,525.068458 1007.69517,524.562202 1007.87377,524.055712 L1008.95241,521.01402 L1010.04548,517.966997 C1010.41229,516.950464 1010.78159,515.933087 1011.15344,514.914912 L1012.27678,511.858035 C1012.46531,511.348172 1012.6545,510.838119 1012.84436,510.327884 L1013.99164,507.264326 C1026.50933,474.052989 1041.94163,440.116872 1063.00163,407 C1117.00163,322.084943 1168.50163,295 1255.3131,269.062399 C1271.89128,264.109154 1290.57267,260.882214 1310.04267,258.4394 L1313.20668,258.049993 L1316.38326,257.673439 C1317.97449,257.488227 1319.56996,257.3075 1321.16899,257.130756 L1324.37157,256.782431 C1324.90606,256.725212 1325.44088,256.668399 1325.97602,256.611972 L1329.19047,256.277905 L1332.41126,255.952227 L1337.25163,255.477489 L1340.48285,255.168879 L1345.33302,254.715557 L1350.18347,254.271067 L1365.79821,252.860179 L1372.00092,252.290085 L1375.76636,251.936349 L1379.5155,251.576294 L1383.24629,251.208447 C1384.4866,251.084369 1385.72351,250.958746 1386.95667,250.831333 L1390.64459,250.443479 C1445.78455,244.537744 1492.64823,234.509642 1500.00163,197.973512 C1520.19762,97.6277566 1582.3595,636.955994 1554.00082,619.222878 C1498.27221,584.374936 1339.13134,671.791641 1337.25163,672.883156 C1255.3131,720.463402 1240.1259,715.023063 1172.00082,839.612088 C1130.99094,914.612088 1063.00082,1057.00228 865.408213,1107.27097 C744.60938,1138.00288 579.154443,1164.21224 455.000817,1264.32781 C397.95397,1310.32951 312.298268,1431.11786 282.500817,1482.66805 C127.805187,1750.29462 -107.99365,1531.90216 1.65392418,1224.86916 Z" id="Shape" fill="#FEFEFE" opacity="0.25" mask="url(#mask-2)"></path>
                    <path d="M1330.06605,-197.723661 C1341.24083,-190.955053 1351.94483,-183.287122 1362.17803,-174.719867 L1362.18108,-174.705889 C1289.79865,-51.2510282 1141.47425,66.8012616 1010.5977,128 C835.236604,210 793.758738,278.568919 706.000817,422 C618.242896,565.431081 546.907558,639.536277 282.500817,651.874686 C106.229657,660.100291 -12.93701,726.909655 -74.9991828,852.302777 L-74.9991828,852.302777 L-74.9993655,703.205 L-68.5430261,506.843906 C-15.6701701,390.185542 76.7846245,331.85636 208.821358,331.85636 C406.876458,331.85636 459.005448,290.807632 513.766714,203.267569 C560.059221,129.265463 579.544032,20.3715935 573.939009,-26.6326361 C568.333986,-73.6368657 1009.14907,-392.104223 1330.06605,-197.723661 Z" id="Combined-Shape" fill="#FEFEFE" opacity="0.75" mask="url(#mask-2)"></path>
                    <path d="M-0.00326265782,407.233324 L-0.00326265782,-394.103282 L16.7241167,-394.646557 L16.7241167,-394.646557 L33.1472276,-395.167656 L33.1472276,-395.167656 L49.2693325,-395.666582 L49.2693325,-395.666582 L65.0904316,-396.143333 C305.372906,-403.283508 439.500642,-402.603491 467.473641,-394.103282 C488.980921,-387.567824 509.491476,-300.692905 525.524152,-223.738776 L527.139022,-215.950649 L527.139022,-215.950649 L528.722205,-208.252015 L528.722205,-208.252015 L530.272887,-200.663972 L530.272887,-200.663972 L535.432591,-175.281275 L535.432591,-175.281275 L536.826954,-168.451938 C542.78967,-139.333902 547.710923,-116.598797 551.292801,-107.970946 C561.482112,-83.4274428 568.940233,-57.284145 574.196774,-29.9758053 L574.175312,-29.963965 C573.901261,-28.7375292 573.820719,-27.6246288 573.939009,-26.6326361 C579.544032,20.3715935 560.059221,129.265463 513.766714,203.267569 C459.553061,289.932231 407.919301,331.030737 214.719382,331.84404 L208.821358,331.85636 C122.162987,331.85636 52.5547802,356.982015 -0.00326265782,407.233324 Z" id="Path" fill="#EB6851" mask="url(#mask-2)"></path>
                </g>
            </g>
        </g>
    </g>
</svg>

<svg id="圖層_1" data-name="圖層 1" xmlns="http://www.w3.org/2000/svg" xmlns:xlink="http://www.w3.org/1999/xlink" viewBox="0 0 1440 1430"><defs><style>.cls-1{fill:#fff;}.cls-1,.cls-11,.cls-3,.cls-5,.cls-7,.cls-9{fill-rule:evenodd;}.cls-2{mask:url(#mask);}.cls-3{fill:#f2f0eb;}.cls-4{mask:url(#mask-2);}.cls-5,.cls-7,.cls-9{fill:#fefefe;isolation:isolate;}.cls-5{opacity:0.5;}.cls-6{mask:url(#mask-3);}.cls-7{opacity:0.25;}.cls-8{mask:url(#mask-4);}.cls-9{opacity:0.75;}.cls-10{mask:url(#mask-5);}.cls-11{fill:#eb6851;}</style><mask id="mask" x="-13.79" y="-260.13" width="1551.27" height="1690.13" maskUnits="userSpaceOnUse"><g id="ncmjwib82b"><path id="vq4t7ohvaa" class="cls-1" d="M0,0H1440V1430H0Z"/></g></mask><mask id="mask-2" x="-75" y="-220" width="1581.7" height="1650" maskUnits="userSpaceOnUse"><g id="ncmjwib82b-2" data-name="ncmjwib82b"><path id="vq4t7ohvaa-2" data-name="vq4t7ohvaa" class="cls-1" d="M0,0H1440V1430H0Z"/></g></mask><mask id="mask-3" x="-26.47" y="0" width="1587.76" height="1603.32" maskUnits="userSpaceOnUse"><g id="ncmjwib82b-3" data-name="ncmjwib82b"><path id="vq4t7ohvaa-3" data-name="vq4t7ohvaa" class="cls-1" d="M0,0H1440V1430H0Z"/></g></mask><mask id="mask-4" x="-75" y="-260" width="1515" height="1690" maskUnits="userSpaceOnUse"><g id="ncmjwib82b-4" data-name="ncmjwib82b"><path id="vq4t7ohvaa-4" data-name="vq4t7ohvaa" class="cls-1" d="M0,0H1440V1430H0Z"/></g></mask><mask id="mask-5" x="0" y="-401.03" width="1440" height="1831.03" maskUnits="userSpaceOnUse"><g id="ncmjwib82b-5" data-name="ncmjwib82b"><path id="vq4t7ohvaa-5" data-name="vq4t7ohvaa" class="cls-1" d="M0,0H1440V1430H0Z"/></g></mask></defs><g class="cls-2"><path class="cls-3" d="M-.15,506.72q-27.27-72.87,0-99.1,78.93-75.89,209.36-75.89c198,0,250.18-41.05,304.94-128.59,46.29-74,65.78-182.89,60.17-229.9s435.21-365.47,756.13-171.09Q1655.69-.86,1470,1430H-.15V506.72Z"/></g><g class="cls-4"><path class="cls-5" d="M1500-220q2.82,73.8,4.44,135l.3,11.55.15,5.69.26,11.2.25,11q4.24,195.6-5.4,243.51c-8.17,40.6-65.12,48.47-128,54.32l-6.2.57-15.62,1.41c-33.4,3-67.09,6.49-94.87,14.79C1168.5,295,1117,322.08,1063,407c-32.4,50.95-51.48,103.84-67.12,153L994.33,565l-1.53,4.88-1.52,4.86L989,581.92l-4.4,14.25-1.45,4.68-1.45,4.65-1.44,4.61-1.44,4.58-1.45,4.53c-3.62,11.29-7.29,22.21-11.15,32.66C940.53,721.53,798.77,992,440,992Q84.82,992,1.65,1224.87L0,1229.6l-75-127.06,15-277.82Q37.16,665.33,277.24,652.57l4.87-.24c264.4-12.34,335.74-86.44,423.5-229.87l7.78-12.71,5.06-8.26c79.4-129.35,125.16-195.13,291.75-273C1145,65.41,1298.39-58,1368.14-185.46L1500-220Z"/></g><g class="cls-6"><path class="cls-7" d="M1.65,1224.87Q84.83,992,440,992c358.78,0,500.53-270.47,526.26-340.12,3.59-9.71,7-19.81,10.37-30.24l.78-2.42,1.45-4.53.72-2.29.72-2.29,1.45-4.61,1.44-4.65,1.45-4.68,4.4-14.25,2.24-7.23,1.52-4.86,1.53-4.88,1.55-4.91,1.42-4.44,1.44-4.45,1.46-4.48,1-3,1-3,1-3,1-3,1-3,1-3,1.06-3,.53-1.51,1.08-3,1.09-3,1.11-3.05,1.13-3.06.56-1.53,1.15-3.07c12.52-33.21,28-67.14,49-100.26,54-84.91,105.5-112,192.31-137.94,16.58-4.95,35.26-8.18,54.73-10.62l3.17-.39,3.17-.38,4.79-.54,3.2-.35,1.61-.17,3.21-.33,3.22-.33,4.84-.47,3.23-.31,4.85-.45,4.85-.45,15.62-1.41,6.2-.57,3.77-.35,3.75-.36,3.73-.37,3.71-.38,3.68-.39c55.14-5.9,102-15.93,109.36-52.47,20.2-100.34,82.36,439,54,421.25-55.73-34.85-214.87,52.57-216.75,53.66C1255.31,720.46,1240.13,715,1172,839.61c-41,75-109,217.39-306.59,267.66C744.61,1138,579.15,1164.21,455,1264.33c-57.05,46-142.7,166.79-172.5,218.34C127.8,1750.29-108,1531.9,1.65,1224.87Z"/></g><g class="cls-8"><path class="cls-9" d="M1330.07-197.72a258,258,0,0,1,32.11,23h0C1289.8-51.25,1141.47,66.8,1010.6,128,835.24,210,793.76,278.57,706,422S546.91,639.54,282.5,651.88Q18.1,664.21-75,852.3V703.21l6.46-196.37q79.31-175,277.36-175c198.06,0,250.19-41.05,305-128.59,46.29-74,65.77-182.9,60.17-229.9S1009.15-392.1,1330.07-197.72Z"/></g><g class="cls-10"><path class="cls-11" d="M0,407.23V-394.1l16.72-.55,16.43-.52,16.12-.5,15.82-.47q360.42-10.71,402.38,2c21.51,6.53,42,93.41,58,170.36l1.62,7.79,1.58,7.7,1.55,7.59,5.16,25.38,1.4,6.83c6,29.12,10.88,51.85,14.46,60.48A400.84,400.84,0,0,1,574.2-30l0,0a10,10,0,0,0-.23,3.33c5.6,47-13.88,155.89-60.17,229.9-54.22,86.66-105.85,127.76-299,128.57l-5.9,0q-130,0-208.82,75.37Z"/></g></svg>
